images/svg/heart-icon.svg

<svg width="38" height="34" viewBox="0 0 38 34" fill="none" xmlns="http://www.w3.org/2000/svg">
<path fill-rule="evenodd" clip-rule="evenodd" d="M31.2678 5.26873C34.4609 7.62616 34.9122 12.0463 32.2556 14.9421L19.0001 29.3913L5.74477 14.9437C3.08767 12.0476 3.53898 7.62685 6.73245 5.26912C10.0009 2.85606 14.7458 3.62579 16.9849 6.93227L17.736 8.04154C18.1857 8.70564 19.1174 8.89789 19.8169 8.47094C20.036 8.3372 20.2063 8.15857 20.3231 7.95588L21.0156 6.93282C23.2541 3.6258 27.9993 2.85557 31.2678 5.26873ZM19.0004 4.69063C15.6348 0.566015 9.31051 -0.256068 4.88378 3.01218C0.325463 6.37758 -0.318738 12.6877 3.47398 16.8215L17.8672 32.5094C18.4134 33.1047 19.3645 33.167 19.9916 32.6484C20.0731 32.581 20.1451 32.5071 20.2075 32.4283L34.5265 16.8199C38.3186 12.6863 37.6744 6.37686 33.1165 3.01179C28.6898 -0.256443 22.3655 0.565939 19.0004 4.69063Z" fill="#F58A07" stroke="#F58A07" stroke-width="2" stroke-linecap="round" stroke-linejoin="round"/>
</svg>

<svg xmlns="http://www.w3.org/2000/svg" width="38" height="34" fill="none"><path fill="#F58A07" fill-rule="evenodd" stroke="#F58A07" stroke-linecap="round" stroke-linejoin="round" stroke-width="2" d="M31.268 5.269c3.193 2.357 3.644 6.777.988 9.673L19 29.392 5.745 14.943c-2.657-2.896-2.206-7.317.987-9.675 3.269-2.413 8.014-1.643 10.253 1.663l.751 1.11c.45.664 1.381.856 2.08.429.22-.134.39-.312.507-.515l.693-1.023c2.238-3.307 6.983-4.077 10.252-1.664ZM19 4.69C15.635.566 9.31-.256 4.884 3.012.325 6.378-.32 12.688 3.474 16.822l14.393 15.687a1.562 1.562 0 0 0 2.125.14 1.47 1.47 0 0 0 .215-.22l14.32-15.61c3.792-4.133 3.147-10.442-1.41-13.807C28.69-.256 22.366.566 19 4.69Z" clip-rule="evenodd"/></svg>
